common/src/main/resources/icons/toolwindows/toolWindowProblems.svg

<svg xmlns="http://www.w3.org/2000/svg" width="13" height="13" viewBox="0 0 24 24"><path fill="#D81B60" d="M6 6.9 3.87 4.78l1.41-1.41L7.4 5.5zM13 1v3h-2V1zm7.13 3.78L18 6.9l-1.4-1.4 2.12-2.13zM4.5 10.5v2h-3v-2zm15 0h3v2h-3zM6 20h12a2 2 0 0 1 2 2H4a2 2 0 0 1 2-2m6-15a6 6 0 0 1 6 6v8H6v-8a6 6 0 0 1 6-6"/></svg>

<!--
  - The MIT License (MIT)
  -
  - Copyright (c) 2015-2022 Elior "Mallowigi" Boukhobza
  -
  - Permission is hereby granted, free of charge, to any person obtaining a copy
  - of this software and associated documentation files (the "Software"), to deal
  - in the Software without restriction, including without limitation the rights
  - to use, copy, modify, merge, publish, distribute, sublicense, and/or sell
  - copies of the Software, and to permit persons to whom the Software is
  - furnished to do so, subject to the following conditions:
  -
  - The above copyright notice and this permission notice shall be included in all
  - copies or substantial portions of the Software.
  -
  - THE SOFTWARE IS PROVIDED "AS IS", WITHOUT WARRANTY OF ANY KIND, EXPRESS OR
  - IMPLIED, INCLUDING BUT NOT LIMITED TO THE WARRANTIES OF MERCHANTABILITY,
  - FITNESS FOR A PARTICULAR PURPOSE AND NONINFRINGEMENT. IN NO EVENT SHALL THE
  - AUTHORS OR COPYRIGHT HOLDERS BE LIABLE FOR ANY CLAIM, DAMAGES OR OTHER
  - LIABILITY, WHETHER IN AN ACTION OF CONTRACT, TORT OR OTHERWISE, ARISING FROM,
  - OUT OF OR IN CONNECTION WITH THE SOFTWARE OR THE USE OR OTHER DEALINGS IN THE
  - SOFTWARE.
  -
  -
  -->


<svg xmlns="http://www.w3.org/2000/svg" version="1.1" width="13px" height="13px" viewBox="0 0 24 24">
  <path fill="#D81B60"
        d="M6,6.9L3.87,4.78L5.28,3.37L7.4,5.5L6,6.9M13,1V4H11V1H13M20.13,4.78L18,6.9L16.6,5.5L18.72,3.37L20.13,4.78M4.5,10.5V12.5H1.5V10.5H4.5M19.5,10.5H22.5V12.5H19.5V10.5M6,20H18A2,2 0 0,1 20,22H4A2,2 0 0,1 6,20M12,5A6,6 0 0,1 18,11V19H6V11A6,6 0 0,1 12,5Z" />
</svg>
